X: 15615
T: Goat's, The
R: polka
M: 2/4
K: Bminor
|:f2 f>e|dB FB|dB BA|ec de|
f2 f>e|dB FB|dB BA|F2 F2:|
|:B>B Bc|dA de|fg/f/ ed|FA Bc|
B>B Bc|dA de|fg/f/ ed|F2 F2:|

